!!!OTL: EINSTMALS FUHR ICH AUF DER SEE
!!!ARE: Europa, Mitteleuropa, Deutschland, Jueterbog
!!!SCT: E0079A
!!!YEM: Copyright 1995, estate of Helmut Schaffrath.
**kern
*ICvox
*Ivox
*M2/4
*k[b-e-]
*B-:
{8f
=1
8b-
8f
8d
8f
=2
8b-
8dd
8.cc}
{16cc
=3
8b-
8g
8f
8b-
=4
16cc
16b-
16a
16g
8f}
{8f
=5
8b-
8b-
8cc
8cc
=6
8dd
8ff
4ee-}
=7
{8dd
8cc
8b-
16dd
16cc
=8
8b-
8a
8b-}
==
!!!AGN: erzaehlendes Volks - Lied, Sage, Liebe, Ballade ?
!!!ONB: ESAC (Essen Associative Code) Database: ERK1
!!!AMT: simple duple
!!!AIN: vox
!!!EED: Helmut Schaffrath
!!!EEV: 1.0
*-
